assets/compare/contactless.svg

<svg width="28" height="29" viewBox="0 0 28 29" fill="none" xmlns="http://www.w3.org/2000/svg">
<path d="M0.804688 9.06334C4.53696 6.03971 9.19634 4.39306 13.9997 4.40017C18.9989 4.40017 23.5897 6.14667 27.1947 9.06334L25.7294 10.8787C22.4116 8.19076 18.2696 6.72701 13.9997 6.7335C9.55586 6.7335 5.47602 8.28517 2.27002 10.8787L0.804688 9.06334ZM4.46919 13.6017C7.16489 11.4177 10.5303 10.2283 13.9997 10.2335C17.4689 10.2284 20.8341 11.4173 23.5302 13.6005L22.0637 15.4158C19.7827 13.5682 16.9351 12.5622 13.9997 12.5668C10.9454 12.5668 8.13952 13.6343 5.93569 15.4158L4.46919 13.6005V13.6017ZM8.13485 18.14C9.79367 16.7959 11.8647 16.0638 13.9997 16.0668C16.221 16.0668 18.2615 16.8427 19.8645 18.1388L18.398 19.9542C17.1539 18.9464 15.6008 18.3977 13.9997 18.4002C12.3337 18.4002 10.803 18.9823 9.60135 19.9542L8.13485 18.1388V18.14ZM11.8005 22.6783C12.4224 22.174 13.199 21.8992 13.9997 21.9002C14.8327 21.9002 15.598 22.1918 16.1989 22.6772L13.9997 25.4002L11.8005 22.6772V22.6783Z" fill="#5BB5A2"/>
</svg>

<svg xmlns="http://www.w3.org/2000/svg" width="28" height="29" fill="none"><path fill="#5BB5A2" d="M.805 9.063A20.912 20.912 0 0 1 14 4.4c4.999 0 9.59 1.747 13.195 4.663l-1.466 1.816A18.589 18.589 0 0 0 14 6.734 18.582 18.582 0 0 0 2.27 10.878L.805 9.063Zm3.664 4.539A15.104 15.104 0 0 1 14 10.233 15.109 15.109 0 0 1 23.53 13.6l-1.466 1.816A12.78 12.78 0 0 0 14 12.566c-3.055 0-5.86 1.068-8.064 2.85L4.469 13.6v.002Zm3.666 4.538A9.295 9.295 0 0 1 14 16.067c2.221 0 4.262.776 5.864 2.072l-1.466 1.815A6.97 6.97 0 0 0 14 18.4 6.97 6.97 0 0 0 9.6 19.954L8.135 18.14v.001Zm3.665 4.538A3.485 3.485 0 0 1 14 21.9c.833 0 1.598.292 2.199.777l-2.2 2.723-2.199-2.723v.001Z"/></svg>
